!!!COM: Haydn, Franz Joseph
!!!OTL: String Quartet in D Major
!!!OPS: Opus 50
!!!ONM: No. 6
!!!OMD: Poco adagio
!!!OMV: 2
!!!SCT: H III:49
!!!SCA: Thematisch-bibliographisches Werkevererzeichnis (A. van Hoboken)
!!!YOR: Trautwein Edition
!!!ENC: Frances Bennion
!!!CDT: 1732/3/31/-1809/5/31/
!!!CNT: Oesterreich
!!!YEC: Copyright (c) 1994, 2000 Center for Computer Assisted Research in the Humanities
!!!YEM: Rights to all derivative editions reserved.
!!!YEM: Refer to licensing agreement for further details.
!!!YEN: United States of America
**kern	**kern	**kern	**kern
*k[b-]	*k[b-]	*k[b-]	*k[b-]
*d:	*d:	*d:	*d:
*clefF4	*clefC3	*clefG	*clefG
*M6/8	*M6/8	*M6/8	*M6/8
2r	2r	2r	2r
8r	8r	8r	8r
8r	8r	8r	16.d
.	.	.	32f
=1	=1	=1	=1
4D	4F	4A	8a
.	.	.	8a
8E	8G	8c#	8a
4F	4A	4d	8.a
.	.	.	16b-
8D	8A	8f	8a
=2	=2	=2	=2
8C#	8A	8e	8a
8AA	8e	8c#	8a
8EE	8g#	8d	16.b
.	.	.	32cc#
8AA	8a	8c#	8a
4r	4r	4r	8r
.	.	.	16.c#
.	.	.	32e
=3	=3	=3	=3
8AA	8c#	4e	8g
8C#	8A	.	8g
8D	8B-	8d	8g
4.E	4.B-	4.c#	8.g
.	.	.	16a
.	.	.	8g
=4	=4	=4	=4
8F	8A	4d	8f
8G	8B-	.	8e
8A	8G	8c#	16.e
.	.	.	32f
8D	8F	8d	8d
4r	4r	4r	8r
.	.	.	16.dd
.	.	.	32ff
=5	=5	=5	=5
4d	8a	8f	8aa
.	8f	8a	8aa
8e	8g	8cc#	8aa
4f	4a	4dd	8.aa
.	.	.	32bb
.	.	.	32ccc#
8d	8a	8f	32ddd
.	.	.	32eee
.	.	.	32fff
.	.	.	32ddd
=6	=6	=6	=6
8e	8a	8g	8ccc#
4r	4r	4r	16r
.	.	.	32ccc#
.	.	.	32ddd
.	.	.	32eee
.	.	.	32fff
.	.	.	32ggg
.	.	.	32eee
8f	8dd	8a	8ddd
4r	4r	4r	16r
.	.	.	32ddd
.	.	.	32eee
.	.	.	32fff
.	.	.	32ggg
.	.	.	32aaa
.	.	.	32fff
=7	=7	=7	=7
4.g	8b-	8dd	8eee
.	8b-	8dd	8eee
.	8b-	8dd	8eee
4.g#	4.b	4.dd	8.eee
.	.	.	16fff
.	.	.	8ddd
=8	=8	=8	=8
4a	8a	8cc#	[2.aaa
.	16r	16r	.
.	32a	32cc#	.
.	32b	32dd	.
8r	32cc#	32ee	.
.	32dd	32ff	.
.	32ee	32gg	.
.	32cc#	32ee	.
4A	8dd	8ff	.
.	16r	16r	.
.	32dd	32ff	.
.	32ee	32gg	.
8r	32ff	32aa	.
.	32ee	32gg	.
.	32ff	32aa	.
.	32dd	32ff	.
=9	=9	=9	=9
8A	8cc#	8ee	2.aaa_
16r	8r	8aa	.
32AA	.	.	.
32BB	.	.	.
32C#	8ee	8gg	.
32D	.	.	.
32E	.	.	.
32C#	.	.	.
32D	8dd	8ff	.
32AA	.	.	.
32F	.	.	.
32D	.	.	.
32A	8r	8r	.
32F	.	.	.
32d	.	.	.
32c#	.	.	.
32d	8dd	8ff	.
32A	.	.	.
32F	.	.	.
32D	.	.	.
=10	=10	=10	=10
8AA	8cc#	8ee	8aaa]
8r	8r	8r	8r
8AA	8A	8A	8A
8AA	8A	8A	8A
4r	4r	4r	8r
.	.	.	16.ff
.	.	.	32aa
=11	=11	=11	=11
4FF	4A 4f	8A	8ccc
.	.	32A	8ccc
.	.	32c	.
.	.	32e	.
.	.	32f	.
8F	8A	32c	8ccc
.	.	32f	.
.	.	32a	.
.	.	32cc	.
4E	4B-	32cc	8.ccc
.	.	32b-	.
.	.	32b-	.
.	.	32a	.
.	.	32a	.
.	.	32g	.
.	.	32g	16ddd
.	.	32a	.
8E	8G	32b-	8ccc
.	.	32a	.
.	.	32b-	.
.	.	32g	.
=12	=12	=12	=12
4F	8F	8a	8r
.	32F	32A	8ccc
.	32A	32c	.
.	32c	32f	.
.	32f	32a	.
8F	32A	32c	8ccc
.	32c	32f	.
.	32f	32a	.
.	32a	32cc	.
4.C	32a	32cc	8.ccc
.	32g	32b-	.
.	32g	32b-	.
.	32f	32a	.
.	32f	32a	.
.	32e	32g	.
.	32e	32g	16ddd
.	32f	32a	.
.	32g	32b-	8ccc
.	32f	32a	.
.	32g	32b-	.
.	32e	32g	.
=13	=13	=13	=13
4F	4f	8a	8r
.	.	32a	8ccc
.	.	32cc	.
.	.	32ee	.
.	.	32ff	.
8A	8f	32cc	8ccc
.	.	32ff	.
.	.	32aa	.
.	.	32ccc	.
4B-	4f	4dd	8ccc
.	.	.	16.bb-
.	.	.	32aa
8B-	8d	8dd	16.gg
.	.	.	32ff
=14	=14	=14	=14
4c	4c	4g	16.ee
.	.	.	32dd
.	.	.	16.cc
.	.	.	32b-
8c	8c	8e	16.a
.	.	.	32g
4d	4d	4f	8f
.	.	.	8b-
8d	8d	8f	8b-
=15	=15	=15	=15
4.c	4.c	4.e	4b-
.	.	.	8a
4.B-	4.B-	16d	16g
.	.	16b-	64a
.	.	.	64g
.	.	.	64f#
.	.	.	64g
.	.	8g	8dd
.	.	8f	8dd
=16	=16	=16	=16
4.B-	4.G	32f	[4.dd
.	.	32e	.
.	.	32f	.
.	.	32e	.
.	.	32f	.
.	.	32e	.
.	.	32f	.
.	.	32e	.
.	.	32g	.
.	.	32e	.
.	.	32g	.
.	.	32e	.
8A	8A	8f	32dd]
.	.	.	32cc
.	.	.	32ff
.	.	.	32ee
8r	8r	8r	32gg
.	.	.	32ff
.	.	.	32aa
.	.	.	32gg
8A	8f	8f	32bb-
.	.	.	32aa
.	.	.	32ddd
.	.	.	32ccc
=17	=17	=17	=17
8A	8f	8f	32bb-
.	.	.	32aa
.	.	.	32ccc
.	.	.	32bb-
8r	8r	8r	32aa
.	.	.	32gg
.	.	.	32bb-
.	.	.	32aa
8A	8f	8f	32gg
.	.	.	32ff
.	.	.	32aa
.	.	.	32gg
8A	8f	8f	32ff
.	.	.	32ee
.	.	.	32gg
.	.	.	32ff
8r	8r	8r	32gg
.	.	.	32ff
.	.	.	32ee
.	.	.	32ff
8AA	8c	8f	32ff
.	.	.	32ee-
.	.	.	32dd
.	.	.	32ee-
=18	=18	=18	=18
4BB-	8d	2f	32ee-
.	.	.	32dd
.	.	.	32cc#
.	.	.	32dd
.	8f	.	32cc#
.	.	.	32dd
.	.	.	32cc#
.	.	.	32dd
8C	8e-	.	32dd
.	.	.	32cc
.	.	.	32b
.	.	.	32cc
8D	8d	.	32cc
.	.	.	32b-
.	.	.	32a
.	.	.	32b-
8E	8c	8g	32a
.	.	.	32b-
.	.	.	32a
.	.	.	32b-
8F	8c	8c	32b-
.	.	.	32a
.	.	.	32g#
.	.	.	32a
=19	=19	=19	=19
4.BB-	2.d	4.d	32a
.	.	.	32g
.	.	.	32f#
.	.	.	32g
.	.	.	32f#
.	.	.	32g
.	.	.	32f#
.	.	.	32g
.	.	.	32d
.	.	.	32dd
.	.	.	32b-
.	.	.	32g
4.BB	.	4.a-	32g
.	.	.	32f
.	.	.	32e
.	.	.	32f
.	.	.	32e
.	.	.	32f
.	.	.	32e
.	.	.	32f
.	.	.	32d
.	.	.	32a-
.	.	.	32f
.	.	.	32d
=20	=20	=20	=20
8C	8f	8a	32c
.	.	.	32a
.	.	.	32f
.	.	.	32c
8r	8r	8r	32cc
.	.	.	32a
.	.	.	32f
.	.	.	32ff
8C	8f	8a	32a
.	.	.	32aa
.	.	.	32ff
.	.	.	32cc
32CC	8f	8a	8ccc
32FF	.	.	.
32AA	.	.	.
32C	.	.	.
32F	16r	16r	16r
32A	.	.	.
32c	16f	16aa	16ccc
32A	.	.	.
32F	16f	16aa	16ccc
32C	.	.	.
32AA	16f	16aa	16ccc
32FF	.	.	.
=21	=21	=21	=21
8CC	8f	8aa	8ccc
4r	4r	4r	16r
.	.	.	16ddd
.	.	.	16eee
.	.	.	16fff
4.C	32b-	4.ee	4.gg
.	32a	.	.
.	32g	.	.
.	32f	.	.
.	32e	.	.
.	32d	.	.
.	32c	.	.
.	32B-	.	.
.	32A	.	.
.	32G	.	.
.	32A	.	.
.	32B-	.	.
=22	=22	=22	=22
32FF	8A	8ff	[2.ff
32AA	.	.	.
32C	.	.	.
32F	.	.	.
32A	8r	8r	.
32F	.	.	.
32C	.	.	.
32AA	.	.	.
32FF	8e-	8cc	.
32AA	.	.	.
32C	.	.	.
32F	.	.	.
8FF	8.e-	8.cc	.
4r	.	.	.
.	16d	16b-	.
.	8c#	8a	.
=23	=23	=23	=23
32FF	8d	8b-	2.ff_
32BB-	.	.	.
32D	.	.	.
32F	.	.	.
32B-	8r	8r	.
32F	.	.	.
32D	.	.	.
32BB-	.	.	.
32FF	8d	8b-	.
32BB-	.	.	.
32D	.	.	.
32F	.	.	.
8FF	8.d	8.b-	.
4r	.	.	.
.	16c	16a	.
.	8B	8g#	.
=24	=24	=24	=24
32FF	8c	8a	4ff]
32AA	.	.	.
32C	.	.	.
32F	.	.	.
32A	8r	8r	.
32F	.	.	.
32C	.	.	.
32AA	.	.	.
32FF	8c	8a	8cc
32AA	.	.	.
32C	.	.	.
32F	.	.	.
8CC	8B-	8e	8.cc
8r	8r	8r	.
.	.	.	16b
8CC	8B-	8e	16b-
.	.	.	16g
=25	=25	=25	=25
32FF	8A	8f	8f
32AA	.	.	.
32C	.	.	.
32F	.	.	.
32A	8r	8r	8r
32F	.	.	.
32C	.	.	.
32AA	.	.	.
32FF	8A	8c	8f
32AA	.	.	.
32C	.	.	.
32F	.	.	.
8FF	8A	8c	8f
8r	8r	8r	8r
8DD-	8F	8A-	16.d-
.	.	.	32f
=26	=26	=26	=26
32DD-	8D-	8f	8a-
32FF	.	.	.
32AA-	.	.	.
32D-	.	.	.
32F	8d-	8f	8a-
32D-	.	.	.
32AA-	.	.	.
32FF	.	.	.
32DD-	8d-	8f	8a-
32FF	.	.	.
32AA-	.	.	.
32D-	.	.	.
4.CC	32e-	32g-	8.a-
.	32g-	32a-	.
.	32e-	32g-	.
.	32g-	32a-	.
.	32e-	32g-	.
.	32g-	32a-	.
.	32e-	32g-	16b-
.	32g-	32a-	.
.	32e-	32g-	8a-
.	32g-	32a-	.
.	32e-	32g-	.
.	32g-	32a-	.
=27	=27	=27	=27
32DD-	8f	8f	8r
32FF	.	.	.
32AA-	.	.	.
32D-	.	.	.
32F	8f	8f	8a-
32D-	.	.	.
32AA-	.	.	.
32FF	.	.	.
32DD-	8f	8f	8a-
32FF	.	.	.
32AA-	.	.	.
32D-	.	.	.
4.CC	32e-	32g-	8.a-
.	32g-	32a-	.
.	32e-	32g-	.
.	32g-	32a-	.
.	32e-	32g-	.
.	32g-	32a-	.
.	32e-	32g-	16b-
.	32g-	32a-	.
.	32e-	32g-	8a-
.	32g-	32a-	.
.	32e-	32g-	.
.	32g-	32a-	.
=28	=28	=28	=28
8DD-	32d-	32f	8r
.	32f	32a-	.
.	32d-	32f	.
.	32f	32a-	.
2r	32d-	32f	8dd-
.	32f	32a-	.
.	32d-	32f	.
.	32f	32a-	.
.	32d-	32f	8dd-
.	32f	32a-	.
.	32d-	32f	.
.	32f	32a-	.
.	32e-	32g-	8.cc
.	32g-	32a-	.
.	32e-	32g-	.
.	32g-	32a-	.
.	32e-	32g-	.
.	32g-	32a-	.
.	32e-	32g-	16dd-
.	32g-	32a-	.
8r	32e-	32g-	8cc
.	32g-	32a-	.
.	32e-	32g-	.
.	32g-	32a-	.
=29	=29	=29	=29
2.r	32d-	32f	8r
.	32f	32a-	.
.	32d-	32f	.
.	32f	32a-	.
.	32d-	32f	8dd-
.	32f	32a-	.
.	32d-	32f	.
.	32f	32a-	.
.	32d-	32f	8dd-
.	32f	32a-	.
.	32d-	32f	.
.	32f	32a-	.
.	32e-	32g-	8.cc
.	32g-	32a-	.
.	32e-	32g-	.
.	32g-	32a-	.
.	32e-	32g-	.
.	32g-	32a-	.
.	32e-	32g-	16dd-
.	32g-	32a-	.
.	32e-	32g-	8cc
.	32g-	32a-	.
.	32e-	32g-	.
.	32g-	32a-	.
=30	=30	=30	=30
2.r	32f	32f	8r
.	32a-	32a-	.
.	32f	32f	.
.	32a-	32a-	.
.	32f	32f	8dd-
.	32a-	32a-	.
.	32f	32f	.
.	32a-	32a-	.
.	32f	32f	8dd-
.	32a-	32a-	.
.	32f	32f	.
.	32a-	32a-	.
.	32f	4.dd-	8.ff
.	32a-	.	.
.	32f	.	.
.	32a-	.	.
.	32f	.	.
.	32a-	.	.
.	32f	.	16gg-
.	32a-	.	.
.	32f	.	8ff
.	32a-	.	.
.	32f	.	.
.	32a-	.	.
=31	=31	=31	=31
2.r	32g-	8dd-	8ee-
.	32b-	.	.
.	32g-	.	.
.	32b-	.	.
.	32g-	8dd-	8ee-
.	32b-	.	.
.	32g-	.	.
.	32b-	.	.
.	32g-	8dd-	8ee-
.	32b-	.	.
.	32g-	.	.
.	32b-	.	.
.	32g	4.dd-	8.ee-
.	32b-	.	.
.	32g	.	.
.	32b-	.	.
.	32g	.	.
.	32b-	.	.
.	32g	.	16ff
.	32b-	.	.
.	32g	.	8ee-
.	32b-	.	.
.	32g	.	.
.	32b-	.	.
=32	=32	=32	=32
2.r	8a-	8cc	8ee-
.	8a-	8cc	8ee-
.	8a-	8cc	8ee-
.	8a-	8cc	8ee-
.	4r	4r	4r
=33	=33	=33	=33
2.r	8A-	8c	8e-
.	8A-	8c	8e-
.	8A-	8c	8e-
.	8A-	8c	8e-
.	4r	4r	4r
=34	=34	=34	=34
2.r	8a-	8cc	8ee-
.	8a-	8cc	8ee-
.	8a-	8cc	8ee-
.	8a-	8cc	8ee-
.	4r	4r	4r
=35	=35	=35	=35
2.r	8A-	8c	8e-
.	8A-	8c	8e-
.	8A-	8c	8e-
.	8A-	8c	8e-
.	4r	4r	4r
=36	=36	=36	=36
8EE	8B	8G#	8e
8EE	8B	8G#	8e
8EE	8B	8G#	8e
8EE	4.B	4.G#	4e
8EE	.	.	.
8EE	.	.	16g#
.	.	.	16e
=37	=37	=37	=37
4.DD#	32f#	32a	8b
.	32a	32B	.
.	32f#	32a	.
.	32a	32B	.
.	32f#	32a	8b
.	32a	32B	.
.	32f#	32a	.
.	32a	32B	.
.	32f#	32a	8b
.	32a	32B	.
.	32f#	32a	.
.	32a	32B	.
4.D#	32f#	32a	8.b
.	32a	32B	.
.	32f#	32a	.
.	32a	32B	.
.	32f#	32a	.
.	32a	32B	.
.	32f#	32a	16cc#
.	32a	32B	.
.	32f#	32a	8b
.	32a	32B	.
.	32f#	32a	.
.	32a	32B	.
=38	=38	=38	=38
4.E	32e	32g#	8r
.	32g#	32B	.
.	32e	32g#	.
.	32g#	32B	.
.	32e	32g#	8b
.	32g#	32B	.
.	32e	32g#	.
.	32g#	32B	.
.	32e	32g#	8b
.	32g#	32B	.
.	32e	32g#	.
.	32g#	32B	.
4.D#	32f#	32a	8.b
.	32a	32B	.
.	32f#	32a	.
.	32a	32B	.
.	32f#	32a	.
.	32a	32B	.
.	32f#	32a	16cc#
.	32a	32B	.
.	32f#	32a	8b
.	32a	32B	.
.	32f#	32a	.
.	32a	32B	.
=39	=39	=39	=39
4.E	8g#	32g#	8r
.	.	32B	.
.	.	32g#	.
.	.	32B	.
.	8e	32g#	8b
.	.	32B	.
.	.	32g#	.
.	.	32B	.
.	8e	32g#	8b
.	.	32B	.
.	.	32g#	.
.	.	32B	.
4.D	4.f	32g#	8.b
.	.	32B	.
.	.	32g#	.
.	.	32B	.
.	.	32g#	.
.	.	32B	.
.	.	32g#	16cc#
.	.	32B	.
.	.	32g#	8b
.	.	32B	.
.	.	32g#	.
.	.	32B	.
=40	=40	=40	=40
2.BB	32f	32g#	8r
.	32e	32f##	.
.	32f	32g#	.
.	32e	32f##	.
.	32f	32g#	8dd
.	32e	32f##	.
.	32f	32g#	.
.	32e	32f##	.
.	32f	32g#	8dd
.	32e	32f##	.
.	32f	32g#	.
.	32e	32f##	.
.	32f	32g#	8.dd
.	32e	32f##	.
.	32f	32g#	.
.	32e	32f##	.
.	32f	32g#	.
.	32e	32f##	.
.	32f	32g#	16cc#
.	32e	32f##	.
.	32f	32g#	8dd
.	32e	32f##	.
.	32f	32g#	.
.	32e	32f##	.
=41	=41	=41	=41
2.BB-	32f	2.g#	8r
.	32e	.	.
.	32d	.	.
.	32c#	.	.
.	32d	.	8ff
.	32c#	.	.
.	32d	.	.
.	32c#	.	.
.	32d	.	8ff
.	32c#	.	.
.	32d	.	.
.	32c#	.	.
.	32d	.	8.ff
.	32c#	.	.
.	32d	.	.
.	32c#	.	.
.	32d	.	.
.	32e	.	.
.	32f	.	16ee
.	32e	.	.
.	32f	.	8dd
.	32e	.	.
.	32d	.	.
.	32f	.	.
=42	=42	=42	=42
32AA	8a	8a	8cc#
32C#	.	.	.
32E	.	.	.
32A	.	.	.
32c#	8c#	8e	8a
32A	.	.	.
32E	.	.	.
32C#	.	.	.
32AA	8c#	8e	8a
32C#	.	.	.
32E	.	.	.
32A	.	.	.
4AA	32d	32f	4a
.	32f	32a	.
.	32d	32f	.
.	32f	32a	.
.	32d	32f	.
.	32f	32a	.
.	32d	32f	.
.	32f	32a	.
8r	32e	32g	32g
.	32d	32f	32f
.	32c#	32e	32e
.	32d	32d	32d
=43	=43	=43	=43
32AA	8A	8c#	8c#
32C#	.	.	.
32E	.	.	.
32A	.	.	.
32c#	8c#	8e	8a
32A	.	.	.
32E	.	.	.
32C#	.	.	.
32AA	8c#	8e	8a
32C#	.	.	.
32E	.	.	.
32A	.	.	.
8AA	32d	32f	4a
.	32f	32a	.
.	32d	32f	.
.	32f	32a	.
4r	32d	32f	.
.	32f	32a	.
.	32d	32f	.
.	32f	32a	.
.	32e	32g	32g
.	32d	32f	32f
.	32c#	32e	32e
.	32d	32d	32d
=44	=44	=44	=44
32AA	8A	8A	8A
32C#	.	.	.
32E	.	.	.
32A	.	.	.
32c#	2r	2r	4r
32A	.	.	.
32E	.	.	.
32C#	.	.	.
32AA	.	.	.
32C#	.	.	.
32E	.	.	.
32A	.	.	.
8AA	.	.	32r
.	.	.	32A
.	.	.	32B-
.	.	.	32B
4r	.	.	32c
.	.	.	32c#
.	.	.	32d
.	.	.	32e
.	8r	8r	32f
.	.	.	32f#
.	.	.	32g
.	.	.	32g#
=45	=45	=45	=45
4D	4F	32d	8a
.	.	32a	.
.	.	32g	.
.	.	32f	.
.	.	32e	8a
.	.	32d	.
.	.	32f	.
.	.	32d	.
8E	8G	32d	8a
.	.	32c#	.
.	.	32e	.
.	.	32c#	.
4F	4A	32d	8.a
.	.	32A	.
.	.	32B	.
.	.	32c#	.
.	.	32d	.
.	.	32e	.
.	.	32f	16b-
.	.	32g	.
8D	8F	32a	8a
.	.	32f	.
.	.	32e	.
.	.	32f	.
=46	=46	=46	=46
8C#	8A	32e	8a
.	.	32c#	.
.	.	32a	.
.	.	32e	.
8AA	8e	32c#	8a
.	.	32e	.
.	.	32c#	.
.	.	32e	.
8EE	8g#	32d	16.b
.	.	32e	.
.	.	32d	.
.	.	32e	32cc#
8AA	8a	8c#	8a
4r	4r	4r	8r
.	.	.	16.c#
.	.	.	32e
=47	=47	=47	=47
32AA	8e	8c#	8g
32BB	.	.	.
32C#	.	.	.
32D	.	.	.
32E	8e	8c#	8g
32F	.	.	.
32G	.	.	.
32A	.	.	.
32B-	8e	8c#	8g
32A	.	.	.
32G	.	.	.
32F	.	.	.
32E	4.e	4.c#	8.g
32F	.	.	.
32E	.	.	.
32D	.	.	.
32C#	.	.	.
32D	.	.	.
32C#	.	.	16a
32BB-	.	.	.
32AA	.	.	8g
32GG	.	.	.
32FF	.	.	.
32EE	.	.	.
=48	=48	=48	=48
32DD	16f	4d	8f
32FF	.	.	.
32AA	16d	.	.
32D	.	.	.
32GG	8B-	.	8e
32BB-	.	.	.
32D	.	.	.
32G	.	.	.
32AA	8G	8c#	16.e
32C#	.	.	.
32E	.	.	.
32A	.	.	32f
4D	8F	8d	8d
.	4r	4r	8r
8r	.	.	16.dd
.	.	.	32ff
=49	=49	=49	=49
4d	8a	8f	8aa
.	8f	8a	8aa
8e	8g	8cc#	8aa
4f	4a	4dd	8.aa
.	.	.	32bb
.	.	.	32ccc#
8d	8a	8f	32ddd
.	.	.	32eee
.	.	.	32fff
.	.	.	32ddd
=50	=50	=50	=50
8e	8a	8g	8ccc#
4r	4r	4r	16r
.	.	.	32ccc#
.	.	.	32ddd
.	.	.	32eee
.	.	.	32fff
.	.	.	32ggg
.	.	.	32eee
8f	8dd	8a	8ddd
4r	4r	4r	16r
.	.	.	32ddd
.	.	.	32eee
.	.	.	32fff
.	.	.	32ggg
.	.	.	32aaa
.	.	.	32fff
=51	=51	=51	=51
4.g	8b-	8dd	8eee
.	8b-	8dd	8eee
.	8b-	8dd	8eee
4.g#	4.b	4.dd	8.eee
.	.	.	16fff
.	.	.	8ddd
=52	=52	=52	=52
4a	8a	8cc#	[2.aaa
.	16r	16r	.
.	32a	32cc#	.
.	32b	32dd	.
8r	32cc#	32ee	.
.	32dd	32ff	.
.	32ee	32gg	.
.	32cc#	32ee	.
4A	8dd	8ff	.
.	16r	16r	.
.	32dd	32ff	.
.	32ee	32gg	.
8r	32ff	32aa	.
.	32ee	32gg	.
.	32ff	32aa	.
.	32dd	32ff	.
=53	=53	=53	=53
8A	8cc#	8ee	2.aaa_
16r	8r	8aa	.
32AA	.	.	.
32BB	.	.	.
32C#	8ee	8gg	.
32D	.	.	.
32E	.	.	.
32C#	.	.	.
32D	8dd	8ff	.
32AA	.	.	.
32F	.	.	.
32D	.	.	.
32A	8r	8r	.
32F	.	.	.
32d	.	.	.
32c#	.	.	.
32d	8dd	8ff	.
32A	.	.	.
32F	.	.	.
32D	.	.	.
=54	=54	=54	=54
8AA	8cc#	8ee	8aaa]
8r	8r	8r	8r
8AA	8A	8A	8A
8AA	8A	8A	8A
4r	4r	4r	8r
.	.	.	16.dd
.	.	.	32ff#
=55	=55	=55	=55
4DD	4F#	8r	8aa
.	.	32A	8aa
.	.	32c#	.
.	.	32d	.
.	.	32f#	.
8D	8f#	32A	8aa
.	.	32d	.
.	.	32f#	.
.	.	32a	.
4C#	4g	32a	8.aa
.	.	32g	.
.	.	32g	.
.	.	32f#	.
.	.	32f#	.
.	.	32e	.
.	.	32e	16bb
.	.	32f#	.
8C#	8e	32g	8aa
.	.	32f#	.
.	.	32g	.
.	.	32e	.
=56	=56	=56	=56
8r	4d	4f#	8r
32D	.	.	8aa
32F#	.	.	.
32A	.	.	.
32c#	.	.	.
32d	8d	8ff#	8aa
32A	.	.	.
32F#	.	.	.
32D	.	.	.
32C#	4.e	4.gg	8.aa
32D	.	.	.
32E	.	.	.
32F#	.	.	.
32G	.	.	.
32F#	.	.	.
32A	.	.	16bb
32G	.	.	.
32B	.	.	8aa
32A	.	.	.
32c#	.	.	.
32A	.	.	.
=57	=57	=57	=57
4d	4f#	8ff#	8r
.	.	32f#	8aa
.	.	32a	.
.	.	32cc#	.
.	.	32dd	.
8F#	8d	32a	8aa
.	.	32dd	.
.	.	32ff#	.
.	.	32aa	.
4G	4d	4b	8aa
.	.	.	16.gg
.	.	.	32ff#
8G	8B	8b	16.ee
.	.	.	32dd
=58	=58	=58	=58
4A	4A	4e	16.cc#
.	.	.	32b
.	.	.	16.a
.	.	.	32g
8A	8A	8c#	16.f#
.	.	.	32e
4B	4B	4d	8d
.	.	.	8g
8B	8B	8d	8g
=59	=59	=59	=59
4.A	4.A	4.c#	4g
.	.	.	8f#
4.G	8G	16B	16e
.	.	16g	64f#
.	.	.	64e
.	.	.	64d#
.	.	.	64e
.	8e	8e	8b
.	8e	8d	8b
=60	=60	=60	=60
4.G	4.e	4.c#	[4.b
8F#	8d	8d	32b]
.	.	.	32a
.	.	.	32dd
.	.	.	32cc#
8r	8r	8r	32ee
.	.	.	32dd
.	.	.	32ff#
.	.	.	32ee
8F#	8a	8d	32gg
.	.	.	32ff#
.	.	.	32bb
.	.	.	32aa
=61	=61	=61	=61
8F#	8a	8d	32ddd
.	.	.	32ccc#
.	.	.	32ddd
.	.	.	32ccc#
8r	8r	8r	32ddd
.	.	.	32ccc#
.	.	.	32ddd
.	.	.	32ccc#
8F#	8d	4d	32ddd
.	.	.	32bb
.	.	.	32ccc
.	.	.	32aa#
8G	8G	.	32bb
.	.	.	32aa#
.	.	.	32bb
.	.	.	32aa#
8r	8r	8d#	32bb
.	.	.	32aa#
.	.	.	32bb
.	.	.	32aa#
8G	8G	8e	32bb
.	.	.	32ff#
.	.	.	32gg
.	.	.	32ee
=62	=62	=62	=62
8A	8A	8f#	32dd
.	.	.	32a
.	.	.	32ff#
.	.	.	32dd
8r	8r	8r	32aa
.	.	.	32ff#
.	.	.	32ddd
.	.	.	32ccc#
8A	8a	16.f#	32ddd
.	.	.	32aa
.	.	.	32ff#
.	.	32dd	32dd
4AA	32g	4.cc#	4.ee
.	32f#	.	.
.	32e	.	.
.	32d	.	.
.	32c#	.	.
.	32B	.	.
.	32A	.	.
.	32G	.	.
8AA	32F#	.	.
.	32E	.	.
.	32F#	.	.
.	32G	.	.
=63	=63	=63	=63
32DD	8F#	8dd	[2.dd
32FF#	.	.	.
32AA	.	.	.
32D	.	.	.
32F#	8r	8r	.
32D	.	.	.
32AA	.	.	.
32FF#	.	.	.
32DD	8a	8cc	.
32FF#	.	.	.
32AA	.	.	.
32D	.	.	.
8DD	8.a	8.cc	.
4r	.	.	.
.	16g	16b	.
.	8f#	8a#	.
=64	=64	=64	=64
32DD	8g	8b	2.dd_
32GG	.	.	.
32BB	.	.	.
32D	.	.	.
32G	8r	8r	.
32D	.	.	.
32BB	.	.	.
32GG	.	.	.
32DD	8g	8b	.
32GG	.	.	.
32BB	.	.	.
32D	.	.	.
8DD	8.g	8.b	.
4r	.	.	.
.	16f#	16a	.
.	8e#	8g#	.
=65	=65	=65	=65
32DD	8f#	8a	4dd]
32FF#	.	.	.
32AA	.	.	.
32D	.	.	.
32F#	8r	8r	.
32D	.	.	.
32AA	.	.	.
32FF#	.	.	.
32DD	8A	8f#	8a
32FF#	.	.	.
32AA	.	.	.
32D	.	.	.
8AA	4.G	4.c#	8.a
8r	.	.	.
.	.	.	16g#
8AA	.	.	16g
.	.	.	16e
=66	=66	=66	=66
32DD	8F#	8d	8d
32FF#	.	.	.
32AA	.	.	.
32D	.	.	.
32F#	8r	8r	8r
32D	.	.	.
32AA	.	.	.
32FF#	.	.	.
32DD	8F#	8A	8d
32FF#	.	.	.
32AA	.	.	.
32D	.	.	.
8DD	8F#	8A	8d
4r	4r	4r	4r
==	==	==	==
*-	*-	*-	*-
!!!RWG1: This file contains only pitch and duration data.
!!!RWG2: Transposing instruments are not transposed.
!!!RWG3: Spines may have incompatible meters.
!!!RWG4: Durations of rests and tied notes may be interpreted.
!!!RWG: Key is interpreted using the Humdrum key tool.
!!!GTL: 6 Quartetti ("Prussian")
!!!OPT: The Frog
!!!AFT: stage1
!!!END: 1997/04/15
!!!KEY: 3045384688
!!!EMD: Converted from MuseData to Humdrum Dec 16, 2000, by Andreas Kornstaedt using muse2kern.
!!!EMD: Manual editing by Craig Sapp, Nov 2001
